src/assets/images/icons/checkbox-multiple-line.svg

<svg width="24" height="24" viewBox="0 0 24 24" fill="none" xmlns="http://www.w3.org/2000/svg">
<g clip-path="url(#clip0_58_16532)">
<path d="M7 7V3C7 2.73478 7.10536 2.48043 7.29289 2.29289C7.48043 2.10536 7.73478 2 8 2H21C21.2652 2 21.5196 2.10536 21.7071 2.29289C21.8946 2.48043 22 2.73478 22 3V16C22 16.2652 21.8946 16.5196 21.7071 16.7071C21.5196 16.8946 21.2652 17 21 17H17V20.993C17 21.549 16.551 22 15.993 22H3.007C2.87472 22.0001 2.74372 21.9742 2.62148 21.9236C2.49925 21.8731 2.38819 21.7989 2.29465 21.7053C2.20112 21.6118 2.12695 21.5008 2.07639 21.3785C2.02583 21.2563 1.99987 21.1253 2 20.993L2.003 8.007C2.003 7.451 2.452 7 3.01 7H7ZM9 7H15.993C16.549 7 17 7.449 17 8.007V15H20V4H9V7ZM15 9H4.003L4 20H15V9ZM8.503 18L4.967 14.464L6.381 13.05L8.503 15.172L12.745 10.929L14.159 12.343L8.503 18Z" fill="#181D27"/>
</g>
<defs>
<clipPath id="clip0_58_16532">
<rect width="24" height="24" fill="white"/>
</clipPath>
</defs>
</svg>

<svg xmlns="http://www.w3.org/2000/svg" width="24" height="24" fill="none" viewBox="0 0 24 24"><g clip-path="url(#a)"><path fill="#181d27" d="M7 7V3a1 1 0 0 1 1-1h13a1 1 0 0 1 1 1v13a1 1 0 0 1-1 1h-4v3.993c0 .556-.449 1.007-1.007 1.007H3.007A1.006 1.006 0 0 1 2 20.993l.003-12.986C2.003 7.451 2.452 7 3.01 7zm2 0h6.993C16.549 7 17 7.449 17 8.007V15h3V4H9zm6 2H4.003L4 20h11zm-6.497 9-3.536-3.536 1.414-1.414 2.122 2.122 4.242-4.243 1.414 1.414z"/></g><defs><clipPath id="a"><path fill="#fff" d="M0 0h24v24H0z"/></clipPath></defs></svg>
